X:1
T:Ingleside, CMD
T:Ingleside, CMD
T:Wiesenthal, before 1904
T:Public Domain Courtesy of the Cyber Hymnal™
C:Wiesenthal, before 1904
Z:Public Domain
Z:Courtesy of the Cyber Hymnal™
%%score ( 1 2 ) ( 3 4 )
L:1/8
Q:1/4=105
M:4/4
K:D
V:1 treble 
V:2 treble 
V:3 bass 
V:4 bass 
V:1
 D2 | [DF]3 [CE] D2 [Fd]2 | [Fd]3 [GB] !fermata![FA]2 z (F/G/) | [FA]3 [DF] [Fd]3 [DF] | %4
 [CE]4 z2 D2 | [DF]3 [CE] D2 [Fd]2 | [Fd]3 [GB] !fermata![FA]2 z (F/G/) | (A2 A/F/)D [CE]3 [CF] | %8
 D4 z3 [FA] | [Af]3 [Ge] [Fd]3 [Fd] | (ed) (cB) [FA]2 z (F/G/) | [FA]3 [DF] [Dd]3 [DF] | %12
 [CE]4 z3 [FA] | [Af]3 [Ge] [Fd]3 [Fd] | ([Ge][Fd]) ([Ac][FB]) [EA]2 z (F/G/) | %15
 (A2 A/F/)D [CE]3 [CF] | D6 |] %17
V:2
 D2 | x4 D2 x2 | x7 D | x8 | x6 D2 | x4 D2 x2 | x7 D | F3 D x4 | D4 x4 | x8 | G2 G2 x2 D x | x8 | %12
 x8 | x8 | x7 D | F3 D x4 | D6 |] %17
V:3
 [D,F,]2 | [D,A,]3 [A,,A,] [D,A,]2 [D,A,]2 | [D,A,]3 [D,D] [D,D]2 z [D,D] | %3
 [D,D]3 [D,A,] [D,A,]3 [D,A,] | [A,,A,]4 z2 [D,F,]2 | [D,A,]3 [A,,A,] [D,A,]2 [D,A,]2 | %6
 [D,A,]3 [D,D] [D,D]2 z [D,D] | [D,D]3 [D,A,] [A,,A,]3 [A,,G,] | [D,F,]4 z3 [D,D] | %9
 [D,D]3 [D,A,] [D,A,]3 [D,A,] | [D,B,]2 [D,D]2 [D,D]2 z [D,D] | [D,D]3 [D,A,] [D,A,]3 [D,A,] | %12
 [A,,A,]4 z3 [D,D] | [D,D]3 [D,A,] [D,A,]3 [D,A,] | (CD) (ED) [A,C]2 z [D,C] | %15
 [D,D]3 [D,A,] [A,,A,]3 [A,,G,] | [D,F,]6 |] %17
V:4
 x2 | x8 | x8 | x8 | x8 | x8 | x8 | x8 | x8 | x8 | x8 | x8 | x8 | x8 | D,2 D,2 x4 | x8 | x6 |] %17

